app/img/blockquote.svg

<svg width="124" height="73" viewBox="0 0 124 73" fill="none" xmlns="http://www.w3.org/2000/svg">
<path fill-rule="evenodd" clip-rule="evenodd" d="M65.6719 68.5499L65.7832 68.1127C67.1009 62.936 68.6531 57.5269 70.4396 51.8856L70.4426 51.8759C72.3218 46.1447 74.3416 40.367 76.5022 34.5428L76.5052 34.5346C78.7582 28.6208 81.0581 22.8005 83.4051 17.0739L83.4104 17.061C85.8499 11.3374 88.2429 5.84791 90.5891 0.592346L90.8536 0H123.559L123.273 1.22723C121.962 6.84782 120.603 12.7496 119.198 18.9325C119.197 18.9351 119.197 18.9378 119.196 18.9404L119.192 18.9625L115.269 37.4525L115.265 37.4745C115.264 37.4769 115.264 37.4793 115.263 37.4817C114.046 43.6609 112.923 49.6523 111.893 55.4559C110.863 61.2614 109.974 66.6434 109.225 71.6024L109.097 72.4531H68.3331L65.6719 68.5499ZM114.284 37.2812L118.221 18.7188C119.544 12.8968 120.826 7.32392 122.066 2C122.144 1.66569 122.222 1.33235 122.299 1H91.5023C89.1585 6.25 86.7679 11.7344 84.3304 17.4531C81.9866 23.1719 79.6898 28.9844 77.4398 34.8906C75.2835 40.7031 73.2679 46.4688 71.3929 52.1875C69.6116 57.8125 68.0648 63.2031 66.7523 68.3594L68.8616 71.4531H108.237C108.987 66.4844 109.877 61.0938 110.909 55.2812C111.94 49.4688 113.065 43.4688 114.284 37.2812ZM0 68.5499L0.111298 68.1127C1.429 62.936 2.98126 57.5269 4.76768 51.8856L4.77074 51.8759C6.6499 46.1447 8.66976 40.367 10.8303 34.5428L10.8334 34.5346C13.0863 28.6208 15.3862 22.8005 17.7332 17.0739L17.7385 17.061C20.178 11.3374 22.571 5.84791 24.9173 0.592346L25.1817 0H58.0487L57.738 1.24254C56.3342 6.8579 54.9301 12.7549 53.5258 18.9335C53.5253 18.9358 53.5248 18.9381 53.5243 18.9404L53.5197 18.9625L49.5976 37.4525L49.5928 37.4745C49.5923 37.4769 49.5919 37.4793 49.5914 37.4817C48.3743 43.6609 47.2509 49.6523 46.2213 55.4559C45.1913 61.2614 44.3021 66.6434 43.5536 71.6024L43.4252 72.4531H2.66127L0 68.5499ZM48.6116 37.2812L52.5491 18.7188C53.8723 12.8968 55.1955 7.32392 56.5186 2C56.6017 1.66569 56.6848 1.33235 56.7679 1H25.8304C23.4866 6.25 21.096 11.7344 18.6585 17.4531C16.3148 23.1719 14.0179 28.9844 11.7679 34.8906C9.61164 40.7031 7.59602 46.4688 5.72102 52.1875C3.93977 57.8125 2.39289 63.2031 1.08039 68.3594L3.18977 71.4531H42.5648C43.3148 66.4844 44.2054 61.0938 45.2366 55.2812C46.2679 49.4688 47.3929 43.4688 48.6116 37.2812Z" fill="#FFD600"/>
</svg>

<svg width="124" height="73" fill="none" xmlns="http://www.w3.org/2000/svg"><path fill-rule="evenodd" clip-rule="evenodd" d="M65.672 68.55l.111-.437a294.471 294.471 0 014.657-16.227l.003-.01a478.366 478.366 0 016.06-17.333l.002-.008a752.117 752.117 0 016.9-17.461l.005-.013c2.44-5.724 4.833-11.213 7.18-16.469L90.853 0h32.705l-.286 1.227a3185.84 3185.84 0 00-4.075 17.706l-.002.007-.004.022-3.923 18.49-.004.023-.002.007a972.651 972.651 0 00-3.37 17.974 640.152 640.152 0 00-2.668 16.146l-.128.851H68.333l-2.661-3.903zm48.612-31.269l3.937-18.562A3189.127 3189.127 0 01122.066 2l.233-1H91.502a1058.674 1058.674 0 00-7.172 16.453 750.66 750.66 0 00-6.89 17.438 477.096 477.096 0 00-6.047 17.297 293.498 293.498 0 00-4.64 16.171l2.109 3.094h39.375c.75-4.969 1.64-10.36 2.672-16.172a966.567 966.567 0 013.375-18zM0 68.55l.111-.437a294.542 294.542 0 014.657-16.227l.003-.01a478.403 478.403 0 016.06-17.333l.002-.008a751.67 751.67 0 016.9-17.461l.005-.013A1058.64 1058.64 0 0124.918.592L25.181 0h32.867l-.311 1.243a847.745 847.745 0 00-4.212 17.69l-.002.007-.004.022-3.922 18.49-.005.023-.002.007a968.518 968.518 0 00-3.37 17.974 637.816 637.816 0 00-2.667 16.146l-.129.851H2.661L0 68.55zM48.612 37.28l3.937-18.562A855.792 855.792 0 0156.768 1H25.83a1058.674 1058.674 0 00-7.171 16.453 751.108 751.108 0 00-6.891 17.438A477.172 477.172 0 005.72 52.188a293.543 293.543 0 00-4.64 16.171l2.109 3.094h39.375c.75-4.969 1.64-10.36 2.672-16.172a971.521 971.521 0 013.375-18z" fill="#FFD600"/></svg>
